Newaita-dark/.places-ubuntu/22/folder-software.svg

<?xml version="1.0" encoding="UTF-8"?>
<svg xmlns="http://www.w3.org/2000/svg" xmlns:xlink="http://www.w3.org/1999/xlink" width="22pt" height="22pt" viewBox="0 0 22 22" version="1.1">
<defs>
<linearGradient id="linear0" gradientUnits="userSpaceOnUse" x1="254" y1="233.5" x2="254" y2="254.666672" gradientTransform="matrix(0.0429729,0,0,0.0429729,-0.00000262285,9.239165)">
<stop offset="0" style="stop-color:rgb(0%,0%,0%);stop-opacity:0.27451;"/>
<stop offset="1" style="stop-color:rgb(0%,0%,0%);stop-opacity:0;"/>
</linearGradient>
<radialGradient id="radial0" gradientUnits="userSpaceOnUse" cx="450.908936" cy="189.579361" fx="450.908936" fy="189.579361" r="21.166656" gradientTransform="matrix(0.000000119742,-0.0537161,-0.0966889,-0.0000000698078,37.204209,43.721791)">
<stop offset="0" style="stop-color:rgb(0%,0%,0%);stop-opacity:0.313725;"/>
<stop offset="0.222222" style="stop-color:rgb(0%,0%,0%);stop-opacity:0.27451;"/>
<stop offset="1" style="stop-color:rgb(0%,0%,0%);stop-opacity:0;"/>
</radialGradient>
<radialGradient id="radial1" gradientUnits="userSpaceOnUse" cx="450.908936" cy="189.579361" fx="450.908936" fy="189.579361" r="21.166656" gradientTransform="matrix(-0.000000119742,0.0537161,0.0966889,0.0000000698078,-15.373997,-5.175142)">
<stop offset="0" style="stop-color:rgb(0%,0%,0%);stop-opacity:0.313725;"/>
<stop offset="0.222222" style="stop-color:rgb(0%,0%,0%);stop-opacity:0.27451;"/>
<stop offset="1" style="stop-color:rgb(0%,0%,0%);stop-opacity:0;"/>
</radialGradient>
<radialGradient id="radial2" gradientUnits="userSpaceOnUse" cx="450.908936" cy="189.579361" fx="450.908936" fy="189.579361" r="21.166656" gradientTransform="matrix(-0.000000119742,-0.0537161,0.0966889,-0.0000000698078,-15.373997,43.721791)">
<stop offset="0" style="stop-color:rgb(0%,0%,0%);stop-opacity:0.313725;"/>
<stop offset="0.222222" style="stop-color:rgb(0%,0%,0%);stop-opacity:0.27451;"/>
<stop offset="1" style="stop-color:rgb(0%,0%,0%);stop-opacity:0;"/>
</radialGradient>
<radialGradient id="radial3" gradientUnits="userSpaceOnUse" cx="450.908936" cy="189.579361" fx="450.908936" fy="189.579361" r="21.166656" gradientTransform="matrix(0.000000119742,0.0537161,-0.0966889,0.0000000698078,37.204207,-5.175142)">
<stop offset="0" style="stop-color:rgb(0%,0%,0%);stop-opacity:0.313725;"/>
<stop offset="0.222222" style="stop-color:rgb(0%,0%,0%);stop-opacity:0.27451;"/>
<stop offset="1" style="stop-color:rgb(0%,0%,0%);stop-opacity:0;"/>
</radialGradient>
<linearGradient id="linear1" gradientUnits="userSpaceOnUse" x1="296.333344" y1="233.5" x2="296.333344" y2="-147.5" gradientTransform="matrix(0.0429729,0,0,0.0429729,0,9.239163)">
<stop offset="0" style="stop-color:rgb(40.392157%,22.745098%,71.764706%);stop-opacity:1;"/>
<stop offset="1" style="stop-color:rgb(49.411765%,34.117647%,76.078431%);stop-opacity:1;"/>
</linearGradient>
<linearGradient id="linear2" gradientUnits="userSpaceOnUse" x1="254" y1="-147.5" x2="254" y2="233.5" gradientTransform="matrix(0.0429729,0,0,0.0429729,0,9.239163)">
<stop offset="0" style="stop-color:rgb(100%,54.117647%,39.607843%);stop-opacity:1;"/>
<stop offset="1" style="stop-color:rgb(100%,43.921569%,26.27451%);stop-opacity:1;"/>
</linearGradient>
<linearGradient id="linear3" gradientUnits="userSpaceOnUse" x1="254" y1="233.5" x2="254" y2="-147.5" gradientTransform="matrix(1,0,0,1,-0.0000023,0)">
<stop offset="0" style="stop-color:rgb(40.392157%,22.745098%,71.764706%);stop-opacity:1;"/>
<stop offset="1" style="stop-color:rgb(49.411765%,34.117647%,76.078431%);stop-opacity:1;"/>
</linearGradient>
</defs>
<g id="surface1">
<path style=" stroke:none;fill-rule:nonzero;fill:url(#linear0);" d="M 2.730469 19.273438 L 19.101562 19.273438 L 19.101562 20.183594 L 2.730469 20.183594 Z M 2.730469 19.273438 "/>
<path style=" stroke:none;fill-rule:nonzero;fill:url(#radial0);" d="M 19.101562 19.273438 L 20.921875 19.273438 L 20.921875 18.363281 L 19.101562 18.363281 Z M 19.101562 19.273438 "/>
<path style=" stroke:none;fill-rule:nonzero;fill:url(#radial1);" d="M 2.730469 19.273438 L 0.910156 19.273438 L 0.910156 20.183594 L 2.730469 20.183594 Z M 2.730469 19.273438 "/>
<path style=" stroke:none;fill-rule:nonzero;fill:url(#radial2);" d="M 2.730469 19.273438 L 0.910156 19.273438 L 0.910156 18.363281 L 2.730469 18.363281 Z M 2.730469 19.273438 "/>
<path style=" stroke:none;fill-rule:nonzero;fill:url(#radial3);" d="M 19.101562 19.273438 L 20.921875 19.273438 L 20.921875 20.183594 L 19.101562 20.183594 Z M 19.101562 19.273438 "/>
<path style=" stroke:none;fill-rule:nonzero;fill:url(#linear1);" d="M 5.003906 2.902344 L 19.785156 2.902344 C 20.285156 2.902344 20.691406 3.308594 20.691406 3.808594 L 20.691406 7.222656 C 20.691406 7.722656 20.285156 8.128906 19.785156 8.128906 L 5.003906 8.128906 C 4.5 8.128906 4.09375 7.722656 4.09375 7.222656 L 4.09375 3.808594 C 4.09375 3.308594 4.5 2.902344 5.003906 2.902344 Z M 5.003906 2.902344 "/>
<path style=" stroke:none;fill-rule:nonzero;fill:rgb(90.196079%,90.196079%,90.196079%);fill-opacity:0.588235;" d="M 5.003906 2.902344 C 4.5 2.902344 4.09375 3.304688 4.09375 3.808594 L 4.09375 3.925781 C 4.09375 3.421875 4.5 3.015625 5.003906 3.015625 L 19.785156 3.015625 C 20.289062 3.015625 20.691406 3.421875 20.691406 3.925781 L 20.691406 3.808594 C 20.691406 3.304688 20.289062 2.902344 19.785156 2.902344 Z M 5.003906 2.902344 "/>
<path style=" stroke:none;fill-rule:nonzero;fill:rgb(12.941177%,12.941177%,12.941177%);fill-opacity:1;" d="M 5.003906 2.835938 C 4.464844 2.835938 4.027344 3.273438 4.027344 3.808594 L 4.027344 7.222656 C 4.027344 7.757812 4.464844 8.195312 5.003906 8.195312 L 19.785156 8.195312 C 20.320312 8.195312 20.757812 7.757812 20.757812 7.222656 L 20.757812 3.808594 C 20.757812 3.273438 20.320312 2.835938 19.785156 2.835938 Z M 5.003906 2.964844 L 19.785156 2.964844 C 20.253906 2.964844 20.628906 3.339844 20.628906 3.808594 L 20.628906 7.222656 C 20.628906 7.691406 20.253906 8.066406 19.785156 8.066406 L 5.003906 8.066406 C 4.535156 8.066406 4.15625 7.691406 4.15625 7.222656 L 4.15625 3.808594 C 4.15625 3.339844 4.535156 2.964844 5.003906 2.964844 Z M 5.003906 2.964844 "/>
<path style=" stroke:none;fill-rule:nonzero;fill:url(#linear2);" d="M 1.820312 4.71875 C 1.316406 4.71875 0.910156 5.125 0.910156 5.628906 L 0.910156 18.363281 C 0.910156 18.867188 1.316406 19.273438 1.820312 19.273438 L 20.011719 19.273438 C 20.515625 19.273438 20.921875 18.867188 20.921875 18.363281 L 20.921875 6.992188 L 8.640625 6.992188 C 8.136719 6.992188 7.730469 6.589844 7.730469 6.085938 L 7.730469 4.71875 Z M 1.820312 4.71875 "/>
<path style=" stroke:none;fill-rule:nonzero;fill:rgb(0%,0%,0%);fill-opacity:0.196078;" d="M 1.820312 19.273438 C 1.316406 19.273438 0.910156 18.867188 0.910156 18.363281 L 0.910156 18.25 C 0.910156 18.753906 1.316406 19.160156 1.820312 19.160156 L 20.011719 19.160156 C 20.515625 19.160156 20.921875 18.753906 20.921875 18.25 L 20.921875 18.363281 C 20.921875 18.867188 20.515625 19.273438 20.011719 19.273438 Z M 1.820312 19.273438 "/>
<path style=" stroke:none;fill-rule:nonzero;fill:rgb(90.196079%,90.196079%,90.196079%);fill-opacity:0.937255;" d="M 1.820312 4.71875 C 1.316406 4.71875 0.910156 5.125 0.910156 5.628906 L 0.910156 5.742188 C 0.910156 5.238281 1.316406 4.832031 1.820312 4.832031 L 7.730469 4.832031 L 7.730469 4.71875 Z M 1.820312 4.71875 "/>
<path style=" stroke:none;fill-rule:nonzero;fill:rgb(90.196079%,90.196079%,90.196079%);fill-opacity:0.937255;" d="M 8.585938 7.050781 C 8.082031 7.050781 7.675781 6.644531 7.675781 6.140625 L 7.675781 6.027344 C 7.675781 6.53125 8.082031 6.9375 8.585938 6.9375 L 20.921875 6.9375 L 20.921875 7.050781 Z M 8.585938 7.050781 "/>
<path style=" stroke:none;fill-rule:nonzero;fill:rgb(12.941177%,12.941177%,12.941177%);fill-opacity:1;" d="M 1.820312 4.65625 C 1.28125 4.65625 0.84375 5.089844 0.84375 5.628906 L 0.84375 18.363281 C 0.84375 18.902344 1.28125 19.335938 1.820312 19.335938 L 20.011719 19.335938 C 20.550781 19.335938 20.984375 18.902344 20.984375 18.363281 L 20.984375 6.863281 L 8.640625 6.863281 C 8.171875 6.863281 7.796875 6.488281 7.796875 6.019531 L 7.796875 4.65625 Z M 1.820312 4.785156 L 7.667969 4.785156 L 7.667969 6.019531 C 7.667969 6.558594 8.101562 6.992188 8.640625 6.992188 L 20.855469 6.992188 L 20.855469 18.363281 C 20.855469 18.832031 20.480469 19.207031 20.011719 19.207031 L 1.820312 19.207031 C 1.351562 19.207031 0.972656 18.832031 0.972656 18.363281 L 0.972656 5.628906 C 0.972656 5.160156 1.351562 4.785156 1.820312 4.785156 Z M 1.820312 4.785156 "/>
<path style="fill-rule:nonzero;fill:url(#linear3);stroke-width:3;stroke-linecap:round;stroke-linejoin:miter;stroke:rgb(12.941177%,12.941177%,12.941177%);stroke-opacity:1;stroke-miterlimit:4;" d="M 248.703523 -4.65645 C 242.885896 -4.65645 238.159075 0.0703709 238.159075 5.978898 L 238.159075 24.24988 C 235.159362 25.158884 232.250548 26.340589 229.523536 27.794996 L 216.615678 14.887138 C 212.434259 10.705719 205.798529 10.705719 201.61711 14.887138 L 194.163277 22.340971 C 189.981858 26.52239 189.981858 33.15812 194.163277 37.339539 L 207.071135 50.247397 C 205.616728 52.97441 204.435023 55.883223 203.526019 58.882936 L 185.164136 58.882936 C 179.34651 58.882936 174.619688 63.609758 174.619688 69.427384 L 174.619688 80.062732 C 174.619688 85.880358 179.34651 90.60718 185.164136 90.60718 L 203.526019 90.60718 C 204.435023 93.606893 205.616728 96.515706 207.071135 99.242719 L 194.163277 112.150577 C 189.981858 116.331996 189.981858 122.967726 194.163277 127.149145 L 201.61711 134.602978 C 205.798529 138.784397 212.434259 138.784397 216.615678 134.602978 L 229.523536 121.69512 C 232.250548 123.149527 235.159362 124.331232 238.159075 125.240236 L 238.159075 143.511218 C 238.159075 149.419745 242.885896 154.146566 248.703523 154.146566 L 259.24797 154.146566 C 265.156497 154.146566 269.883318 149.419745 269.883318 143.511218 L 269.883318 125.240236 C 272.883032 124.331232 275.791845 123.149527 278.518857 121.69512 L 291.426716 134.602978 C 295.608134 138.784397 302.243864 138.784397 306.425283 134.602978 L 313.879117 127.149145 C 317.969635 122.967726 317.969635 116.331996 313.879117 112.150577 L 300.971259 99.242719 C 302.334765 96.515706 303.607371 93.606893 304.516375 90.60718 L 322.787357 90.60718 C 328.695884 90.60718 333.331805 85.880358 333.331805 80.062732 L 333.331805 69.427384 C 333.331805 63.609758 328.695884 58.882936 322.787357 58.882936 L 304.516375 58.882936 C 303.607371 55.883223 302.334765 52.97441 300.971259 50.247397 L 313.879117 37.339539 C 317.969635 33.15812 317.969635 26.52239 313.879117 22.340971 L 306.425283 14.887138 C 302.243864 10.705719 295.608134 10.705719 291.426716 14.887138 L 278.518857 27.794996 C 275.791845 26.340589 272.883032 25.158884 269.883318 24.24988 L 269.883318 5.978898 C 269.883318 0.0703709 265.156497 -4.65645 259.24797 -4.65645 Z M 253.975747 48.247588 C 268.701613 48.247588 280.427766 60.064642 280.427766 74.790508 C 280.427766 89.425474 268.701613 101.242528 253.975747 101.242528 C 239.34078 101.242528 227.523727 89.425474 227.523727 74.790508 C 227.523727 60.064642 239.34078 48.247588 253.975747 48.247588 Z M 253.975747 48.247588 " transform="matrix(0.0429729,0,0,0.0429729,0,9.239163)"/>
</g>
</svg>

<svg xmlns="http://www.w3.org/2000/svg" width="22pt" height="22pt" viewBox="0 0 22 22"><defs><linearGradient id="a" gradientUnits="userSpaceOnUse" x1="254" y1="233.5" x2="254" y2="254.667" gradientTransform="matrix(.04297 0 0 .04297 0 9.24)"><stop offset="0" stop-opacity=".275"/><stop offset="1" stop-opacity="0"/></linearGradient><radialGradient id="b" gradientUnits="userSpaceOnUse" cx="450.909" cy="189.579" fx="450.909" fy="189.579" r="21.167" gradientTransform="matrix(0 -.05372 -.09669 0 37.204 43.722)"><stop offset="0" stop-opacity=".314"/><stop offset=".222" stop-opacity=".275"/><stop offset="1" stop-opacity="0"/></radialGradient><radialGradient id="c" gradientUnits="userSpaceOnUse" cx="450.909" cy="189.579" fx="450.909" fy="189.579" r="21.167" gradientTransform="matrix(0 .05372 .09669 0 -15.374 -5.175)"><stop offset="0" stop-opacity=".314"/><stop offset=".222" stop-opacity=".275"/><stop offset="1" stop-opacity="0"/></radialGradient><radialGradient id="d" gradientUnits="userSpaceOnUse" cx="450.909" cy="189.579" fx="450.909" fy="189.579" r="21.167" gradientTransform="matrix(0 -.05372 .09669 0 -15.374 43.722)"><stop offset="0" stop-opacity=".314"/><stop offset=".222" stop-opacity=".275"/><stop offset="1" stop-opacity="0"/></radialGradient><radialGradient id="e" gradientUnits="userSpaceOnUse" cx="450.909" cy="189.579" fx="450.909" fy="189.579" r="21.167" gradientTransform="matrix(0 .05372 -.09669 0 37.204 -5.175)"><stop offset="0" stop-opacity=".314"/><stop offset=".222" stop-opacity=".275"/><stop offset="1" stop-opacity="0"/></radialGradient><linearGradient id="f" gradientUnits="userSpaceOnUse" x1="296.333" y1="233.5" x2="296.333" y2="-147.5" gradientTransform="matrix(.04297 0 0 .04297 0 9.24)"><stop offset="0" stop-color="#673ab7"/><stop offset="1" stop-color="#7e57c2"/></linearGradient><linearGradient id="g" gradientUnits="userSpaceOnUse" x1="254" y1="-147.5" x2="254" y2="233.5" gradientTransform="matrix(.04297 0 0 .04297 0 9.24)"><stop offset="0" stop-color="#ff8a65"/><stop offset="1" stop-color="#ff7043"/></linearGradient><linearGradient id="h" gradientUnits="userSpaceOnUse" x1="254" y1="233.5" x2="254" y2="-147.5"><stop offset="0" stop-color="#673ab7"/><stop offset="1" stop-color="#7e57c2"/></linearGradient></defs><path d="M2.73 19.273h16.372v.91H2.73zm0 0" fill="url(#a)"/><path d="M19.102 19.273h1.82v-.91h-1.82zm0 0" fill="url(#b)"/><path d="M2.73 19.273H.91v.91h1.82zm0 0" fill="url(#c)"/><path d="M2.73 19.273H.91v-.91h1.82zm0 0" fill="url(#d)"/><path d="M19.102 19.273h1.82v.91h-1.82zm0 0" fill="url(#e)"/><path d="M5.004 2.902h14.781c.5 0 .906.407.906.907v3.414c0 .5-.406.906-.906.906H5.004a.908.908 0 0 1-.91-.906V3.809c0-.5.406-.907.91-.907zm0 0" fill="url(#f)"/><path d="M5.004 2.902a.905.905 0 0 0-.91.907v.117c0-.504.406-.91.91-.91h14.781c.504 0 .906.406.906.91v-.117a.902.902 0 0 0-.906-.907zm0 0" fill="#e6e6e6" fill-opacity=".588"/><path d="M5.004 2.836a.976.976 0 0 0-.977.973v3.414c0 .535.438.972.977.972h14.781a.975.975 0 0 0 .973-.972V3.809a.975.975 0 0 0-.973-.973zm0 .129h14.781a.84.84 0 0 1 .844.844v3.414a.84.84 0 0 1-.844.843H5.004a.844.844 0 0 1-.848-.843V3.809c0-.47.38-.844.848-.844zm0 0" fill="#212121"/><path d="M1.82 4.719a.909.909 0 0 0-.91.91v12.734c0 .504.406.91.91.91h18.192c.504 0 .91-.406.91-.91V6.993H8.64a.905.905 0 0 1-.91-.907V4.719zm0 0" fill="url(#g)"/><path d="M1.82 19.273a.909.909 0 0 1-.91-.91v-.113c0 .504.406.91.91.91h18.192c.504 0 .91-.406.91-.91v.113c0 .504-.406.91-.91.91zm0 0" fill-opacity=".196"/><path d="M1.82 4.719a.909.909 0 0 0-.91.91v.113c0-.504.406-.91.91-.91h5.91v-.113zm0 0M8.586 7.05a.909.909 0 0 1-.91-.91v-.113c0 .504.406.91.91.91h12.336v.114zm0 0" fill="#e6e6e6" fill-opacity=".937"/><path d="M1.82 4.656a.974.974 0 0 0-.976.973v12.734c0 .54.437.973.976.973h18.192a.97.97 0 0 0 .972-.973v-11.5H8.641a.84.84 0 0 1-.844-.843V4.656zm0 .13h5.848V6.02c0 .539.434.972.973.972h12.214v11.371a.84.84 0 0 1-.843.844H1.82a.844.844 0 0 1-.847-.844V5.63c0-.469.379-.844.847-.844zm0 0" fill="#212121"/><path d="M248.704-4.656c-5.818 0-10.545 4.726-10.545 10.635v18.27a47.88 47.88 0 0 0-8.635 3.546l-12.908-12.908c-4.182-4.181-10.817-4.181-14.999 0l-7.454 7.454c-4.181 4.181-4.181 10.817 0 14.999l12.908 12.907a47.88 47.88 0 0 0-3.545 8.636h-18.362c-5.817 0-10.544 4.727-10.544 10.544v10.636c0 5.817 4.727 10.544 10.544 10.544h18.362c.909 3 2.09 5.909 3.545 8.636l-12.908 12.908c-4.181 4.181-4.181 10.817 0 14.998l7.454 7.454c4.182 4.181 10.817 4.181 14.999 0l12.908-12.908a47.88 47.88 0 0 0 8.635 3.545v18.271c0 5.909 4.727 10.636 10.545 10.636h10.544a10.591 10.591 0 0 0 10.635-10.636v-18.27c3-.91 5.909-2.091 8.636-3.546l12.908 12.908c4.181 4.181 10.817 4.181 14.998 0l7.454-7.454a10.7 10.7 0 0 0 0-14.998l-12.908-12.908c1.364-2.727 2.636-5.636 3.545-8.636h18.271c5.909 0 10.545-4.727 10.545-10.544V69.427c0-5.817-4.636-10.544-10.545-10.544h-18.27c-.91-3-2.182-5.909-3.546-8.636L313.88 37.34a10.7 10.7 0 0 0 0-14.999l-7.454-7.454c-4.181-4.181-10.817-4.181-14.998 0l-12.908 12.908a47.88 47.88 0 0 0-8.636-3.545V5.979a10.591 10.591 0 0 0-10.635-10.635zm5.272 52.904c14.726 0 26.452 11.817 26.452 26.543a26.361 26.361 0 0 1-26.452 26.452c-14.635 0-26.452-11.818-26.452-26.452 0-14.726 11.817-26.543 26.452-26.543zm0 0" transform="matrix(.04297 0 0 .04297 0 9.24)" fill="url(#h)" stroke-width="3" stroke-linecap="round" stroke="#212121"/></svg>
